Papirus/64x64/apps/com.github.torikulhabib.mindi.svg

<?xml version="1.0" encoding="UTF-8" standalone="no"?>
<svg
   id="_图层_1"
   version="1.1"
   viewBox="0 0 64 64" width="64" height="64"
   sodipodi:docname="com.github.torikulhabib.mindi.svg"
   xml:space="preserve"
   inkscape:version="1.4 (e7c3feb100, 2024-10-09)"
   xmlns:inkscape="http://www.inkscape.org/namespaces/inkscape"
   xmlns:sodipodi="http://sodipodi.sourceforge.net/DTD/sodipodi-0.dtd"
   xmlns="http://www.w3.org/2000/svg"
   xmlns:svg="http://www.w3.org/2000/svg"><sodipodi:namedview
     id="namedview26"
     pagecolor="#505050"
     bordercolor="#eeeeee"
     borderopacity="1"
     inkscape:showpageshadow="0"
     inkscape:pageopacity="0"
     inkscape:pagecheckerboard="0"
     inkscape:deskcolor="#505050"
     inkscape:zoom="8.453125"
     inkscape:cx="31.94085"
     inkscape:cy="33.833641"
     inkscape:window-width="1920"
     inkscape:window-height="939"
     inkscape:window-x="0"
     inkscape:window-y="34"
     inkscape:window-maximized="1"
     inkscape:current-layer="_图层_1" /><!-- Generator: Adobe Illustrator 29.0.1, SVG Export Plug-In . SVG Version: 2.1.0 Build 192)  --><defs
     id="defs6"><style
       id="style1">
      .st0 {
        fill-opacity: .5;
      }

      .st0, .st1, .st2, .st3, .st4, .st5, .st6, .st7 {
        fill: #fff;
      }

      .st8 {
        fill: #133c9a;
      }

      .st2, .st9 {
        display: none;
      }

      .st3 {
        fill-opacity: .2;
      }

      .st4 {
        fill-opacity: .9;
      }

      .st10 {
        fill: #3370ff;
      }

      .st11 {
        fill: url(#_未命名的渐变_3);
      }

      .st12 {
        fill: url(#_未命名的渐变);
      }

      .st5 {
        fill-opacity: .3;
      }

      .st6 {
        fill-opacity: 0;
      }

      .st7 {
        fill-opacity: .7;
      }

      .st13 {
        fill: #00d6b9;
      }

      .st14 {
        fill: url(#_未命名的渐变_2);
      }
    </style><radialGradient
       id="_未命名的渐变"
       data-name="未命名的渐变"
       cx="123.9"
       cy="-40.2"
       fx="123.9"
       fy="-40.2"
       r="59.4"
       gradientTransform="translate(-26.8 25.5) scale(.6 -.7)"
       gradientUnits="userSpaceOnUse"><stop
         offset="0"
         stop-color="#db202e"
         id="stop1" /><stop
         offset="1"
         stop-color="#e01b24"
         id="stop2" /></radialGradient><radialGradient
       id="_未命名的渐变_2"
       data-name="未命名的渐变 2"
       cx="67.6"
       cy="26.8"
       fx="67.6"
       fy="26.8"
       r="105.2"
       gradientTransform="translate(-26.6 25.3) scale(.6 -.7)"
       gradientUnits="userSpaceOnUse"><stop
         offset="0"
         stop-color="#ffb648"
         id="stop3" /><stop
         offset="1"
         stop-color="#ff7800"
         stop-opacity="0"
         id="stop4" /></radialGradient><radialGradient
       id="_未命名的渐变_3"
       data-name="未命名的渐变 3"
       cx="61.7"
       cy="18.6"
       fx="61.7"
       fy="18.6"
       r="68"
       gradientTransform="translate(-26.8 25.8) scale(.6 -.7)"
       gradientUnits="userSpaceOnUse"><stop
         offset="0"
         stop-color="#c64600"
         id="stop5" /><stop
         offset="1"
         stop-color="#a51d2d"
         id="stop6" /></radialGradient></defs><path
     class="st1"
     d="M47.5,64.1H13.8c-7.6,0-13.8-6.3-13.8-13.8V13.7C0,6.2,6.2,0,13.7,0h36.6c7.5,0,13.7,6.2,13.7,13.7v36.6c0,7.5-6.2,13.7-13.7,13.7h-2.9.1Z"
     id="path6"
     style="fill:#f37329;fill-opacity:1" /><g
     id="g44"
     transform="matrix(1.1436493,0,0,1.1452798,-4.5967784,-4.58568)"><path
       style="opacity:0.1;fill-rule:evenodd"
       d="m 17.171875,6.999117 c -1.063505,0.2566708 -1.998492,0.86677 -2.960938,1.3671875 -2.879228,1.6477315 -5.6971724,3.4245325 -8.3476557,5.4218745 -0.3673972,0.46846 -1.5126025,0.843934 -1.2148435,1.535156 0.7947953,0.838992 1.7791585,1.459656 2.7304684,2.144532 0.3322292,0.22309 0.677472,0.427877 1.0117188,0.648437 -0.3103376,0.780231 -0.567209,1.601834 -0.8945312,2.328124 -3.490715,10.063136 -0.7582979,22.022583 6.9921872,29.386719 2.222035,2.136399 5.181405,4.094745 8.210936,5.281249 9.308562,3.831282 21.072881,1.808114 27.847657,-5.867187 6.0221,-6.61126 7.181134,-17.811844 2.855468,-25.624999 -1.03425,-1.974234 -2.662804,-3.976024 -3.82422,-5.089843 -3.522502,-3.416874 -8.347314,-5.409608 -13.257811,-5.425781 -7.2318,-0.105164 -14.695102,4.367823 -17.164062,11.289062 -2.737375,6.960521 0.397012,16.657153 7.21875,20.031249 6.031622,3.31041 14.410201,0.686224 17.429687,-5.503906 2.027908,-3.825638 1.547256,-9.663627 -1.347656,-12.921875 -1.059268,-1.268992 -2.981326,-2.501936 -4.800781,-2.898438 -4.391244,-1.184818 -9.772236,1.90832 -9.953126,6.679688 0.0152,2.387307 3.456194,3.448585 4.8125,1.476561 0.346872,-2.253431 2.73132,-3.903219 4.863282,-2.546873 3.070583,1.831032 2.918851,7.429341 0.226562,9.542967 -2.645888,2.479748 -7.018128,3.027126 -9.921874,0.675782 -4.61212,-3.340196 -5.411322,-11.327091 -1.847656,-15.644531 4.116504,-5.424336 12.806635,-6.523195 18.246093,-2.460936 6.29283,4.477064 8.37062,14.526733 4.816406,21.351561 C 45.335022,49.442659 36.448561,52.803626 28.746093,51.292082 20.360337,49.920887 13.6196,42.804931 11.925781,34.592865 10.891653,30.079966 11.320203,25.28869 13.023437,20.99521 c 0.980763,0.560796 1.970259,1.106792 2.984375,1.605468 0.533854,0.270218 1.609675,0.841324 1.574219,-0.210938 0.350219,-2.587934 0.301442,-5.214327 0.308594,-7.820311 C 17.841895,12.261576 17.844165,9.9332159 17.496093,7.6514608 17.423363,7.451295 17.449633,7.0258762 17.171875,6.999117 Z"
       id="path2-1" /><path
       style="opacity:0.2;fill:#ffffff;fill-rule:evenodd"
       d="M 32,4 A 27.999995,27.999995 0 0 0 4,32 27.999995,27.999995 0 0 0 4.0175781,32.492188 27.999995,27.999995 0 0 1 32,5 27.999995,27.999995 0 0 1 59.974609,32.492188 27.999995,27.999995 0 0 0 60,32 27.999995,27.999995 0 0 0 32,4 Z"
       id="path3" /><circle
       style="fill:none"
       cx="128"
       cy="127.095"
       r="103.019"
       transform="matrix(0.27179419,0,0,0.27179419,-2.7896558,-2.5438114)"
       id="circle3" /><path
       style="fill:#b72e0c;fill-rule:evenodd"
       d="m 36.321391,12.106862 c -7.2318,-0.105164 -14.697948,4.368199 -17.166908,11.289438 -2.737376,6.960522 0.400284,16.654431 7.222022,20.028527 6.031622,3.31041 14.410471,0.687322 17.429957,-5.502808 2.027908,-3.825636 1.54724,-9.665347 -1.347672,-12.923595 -1.059268,-1.268992 -2.984624,-2.500756 -4.804079,-2.897258 -4.391244,-1.184818 -9.77046,1.908006 -9.95135,6.679374 0.0152,2.387308 3.454884,3.448625 4.81119,1.476602 0.34687,-2.253432 2.733224,-3.903956 4.865186,-2.54761 3.070583,1.831032 2.918401,7.428853 0.226112,9.542479 -2.645888,2.479748 -7.016888,3.030562 -9.920634,0.679218 -4.61212,-3.340196 -5.411366,-11.326777 -1.8477,-15.644217 4.116504,-5.424337 12.805423,-6.524632 18.244881,-2.462373 6.29283,4.477065 8.37182,14.527014 4.817606,21.351842 -3.563414,7.267762 -12.452037,10.626748 -20.154505,9.115204 -8.385756,-1.371196 -15.126393,-8.485244 -16.820211,-16.69731 -1.203762,-5.253177 -0.440923,-10.888413 2.027618,-15.670169 0.913322,-2.147846 -1.671861,-4.457116 -3.700791,-3.32661 -1.6923342,0.999528 -2.003273,3.179 -2.7556028,4.848333 -3.490715,10.063135 -0.7595645,22.022914 6.9909208,29.38705 2.222035,2.1364 5.181727,4.092113 8.211258,5.278617 9.308562,3.831282 21.071735,1.811264 27.846511,-5.864037 6.0221,-6.61126 7.183004,-17.815207 2.857338,-25.628363 -1.03425,-1.974234 -2.66141,-3.972274 -3.822824,-5.086094 -3.522504,-3.416873 -8.347826,-5.410067 -13.258323,-5.42624 z"
       id="path4" /><path
       style="fill:#b72e0c;fill-rule:evenodd"
       d="M 17.171423,6.000003 C 16.107919,6.2566738 15.17173,6.867856 14.209284,7.3682735 11.330055,9.0160046 8.5146666,10.789926 5.8641833,12.787268 5.4967861,13.255728 4.351093,13.63216 4.648852,14.323383 c 0.7947955,0.838991 1.7796899,1.458844 2.7309998,2.143719 2.7782662,1.86559 5.6211902,3.65702 8.6272562,5.135208 0.533853,0.270218 1.609458,0.838906 1.574002,-0.213354 0.350219,-2.587935 0.30256,-5.210966 0.309712,-7.816951 -0.04873,-2.307852 -0.0473,-4.6398443 -0.395373,-6.9215996 -0.07273,-0.2001658 -0.04627,-0.6236432 -0.324026,-0.6504024 z"
       id="path5-9" /><path
       style="opacity:0.2"
       d="m 43.726684,11.08945 c -1.551868,-0.409611 -1.620996,0.662276 -1.90286,1.698551 l -8.029265,29.44545 c 0,0 -0.787012,-0.286614 -1.38304,-0.443888 -4.450258,-1.46775 -10.278432,0.479622 -12.00739,5.053796 -1.548082,3.590924 1.594356,7.711167 5.299182,8.067039 4.596988,0.70901 9.13793,-2.883602 9.755822,-7.451539 2.126504,-7.768492 4.205017,-15.55927 6.361515,-23.313835 0.398702,-0.265356 0.820016,0.635014 1.131122,0.755866 3.020762,3.056822 5.254562,7.372381 4.291662,11.758201 -0.68414,3.445144 -2.61761,6.482476 -4.633232,9.311624 5.18836,-3.725082 8.321448,-10.330154 7.141626,-16.659159 C 49.253878,25.687028 46.677134,22.854172 45.753408,19.365868 45.013432,17.002334 44.645752,14.484809 44.988106,12.015474 44.870652,11.450677 44.25498,11.223212 43.760828,11.0985 Z"
       id="path6-4" /><path
       style="fill:#ffcb4c"
       d="m 43.726684,10.089447 c -1.551868,-0.4096104 -1.620996,0.662276 -1.90286,1.698552 l -8.029265,29.44545 c 0,0 -0.787012,-0.286614 -1.38304,-0.443888 -4.450258,-1.46775 -10.278432,0.479622 -12.00739,5.053796 -1.548082,3.590924 1.594356,7.711167 5.299182,8.067039 4.596988,0.70901 9.13793,-2.883601 9.755822,-7.451539 2.126504,-7.768492 4.205017,-15.559269 6.361515,-23.313835 0.398702,-0.265356 0.820016,0.635014 1.131122,0.755866 3.020762,3.056822 5.254562,7.372382 4.291662,11.758201 -0.68414,3.445144 -2.61761,6.482476 -4.633232,9.311624 5.18836,-3.725082 8.321448,-10.330154 7.141626,-16.659159 C 49.253878,24.687026 46.677134,21.85417 45.753408,18.365865 45.013432,16.002331 44.645752,13.484807 44.988106,11.015472 44.870652,10.450675 44.25498,10.22321 43.760828,10.098497 Z"
       id="path7-7" /><path
       style="opacity:0.2;fill:#ffffff"
       d="M 43.210938,10.001953 C 42.154222,9.94688 42.07085,10.880368 41.824219,11.787109 l -8.029297,29.447266 c 0,0 -0.786785,-0.288039 -1.382813,-0.445313 -4.450258,-1.46775 -10.278854,0.480514 -12.007812,5.054688 -0.343534,0.79686 -0.444407,1.61785 -0.371094,2.419922 0.05166,-0.475913 0.169574,-0.952477 0.371094,-1.419922 1.728958,-4.574174 7.557554,-6.522438 12.007812,-5.054688 0.596028,0.157275 1.382813,0.445313 1.382813,0.445313 l 8.029297,-29.447266 c 0.281864,-1.036276 0.350476,-2.106876 1.902343,-1.697265 l 0.03516,0.0078 c 0.424385,0.107106 0.935403,0.291951 1.146484,0.699219 0.0207,-0.260745 0.04404,-0.521337 0.08008,-0.78125 -0.117454,-0.564797 -0.73241,-0.793256 -1.226562,-0.917969 l -0.03516,-0.0078 c -0.193983,-0.0512 -0.364665,-0.08002 -0.515624,-0.08789 z m 1.664062,3.4375 c -0.06672,2.004889 0.280784,4.015339 0.878906,5.925781 0.923726,3.488305 3.500099,6.322738 3.998047,9.947266 0.133335,0.715259 0.204043,1.432635 0.230469,2.150391 0.03083,-1.048502 -0.03516,-2.102703 -0.230469,-3.150391 C 49.254005,24.687972 46.677632,21.853539 45.753906,18.365234 45.255278,16.772581 44.932197,15.110089 44.875,13.439453 Z m 2.578125,20.640625 c -0.02747,0.523823 -0.09308,1.050193 -0.208984,1.578125 -0.68414,3.445144 -2.619144,6.483352 -4.634766,9.3125 0.533577,-0.383091 1.039697,-0.803563 1.527344,-1.244141 1.404232,-2.186445 2.600417,-4.515218 3.107422,-7.068359 0.190041,-0.8656 0.249455,-1.727135 0.208984,-2.578125 z"
       id="path8-8" /></g></svg>

<svg xmlns="http://www.w3.org/2000/svg" xmlns:xlink="http://www.w3.org/1999/xlink" width="64" height="64" version="1.1">
 <circle style="opacity:0.2" cx="32" cy="33" r="28"/>
 <circle style="fill:#f37329" cx="32" cy="32" r="28"/>
 <path style="opacity:0.1;fill-rule:evenodd" d="m 17.171875,6.999117 c -1.063505,0.2566708 -1.998492,0.86677 -2.960938,1.3671875 -2.879228,1.6477315 -5.6971724,3.4245325 -8.3476557,5.4218745 -0.3673972,0.46846 -1.5126025,0.843934 -1.2148435,1.535156 0.7947953,0.838992 1.7791585,1.459656 2.7304684,2.144532 0.3322292,0.22309 0.677472,0.427877 1.0117188,0.648437 -0.3103376,0.780231 -0.567209,1.601834 -0.8945312,2.328124 -3.490715,10.063136 -0.7582979,22.022583 6.9921872,29.386719 2.222035,2.136399 5.181405,4.094745 8.210936,5.281249 9.308562,3.831282 21.072881,1.808114 27.847657,-5.867187 6.0221,-6.61126 7.181134,-17.811844 2.855468,-25.624999 -1.03425,-1.974234 -2.662804,-3.976024 -3.82422,-5.089843 -3.522502,-3.416874 -8.347314,-5.409608 -13.257811,-5.425781 -7.2318,-0.105164 -14.695102,4.367823 -17.164062,11.289062 -2.737375,6.960521 0.397012,16.657153 7.21875,20.031249 6.031622,3.31041 14.410201,0.686224 17.429687,-5.503906 2.027908,-3.825638 1.547256,-9.663627 -1.347656,-12.921875 -1.059268,-1.268992 -2.981326,-2.501936 -4.800781,-2.898438 -4.391244,-1.184818 -9.772236,1.90832 -9.953126,6.679688 0.0152,2.387307 3.456194,3.448585 4.8125,1.476561 0.346872,-2.253431 2.73132,-3.903219 4.863282,-2.546873 3.070583,1.831032 2.918851,7.429341 0.226562,9.542967 -2.645888,2.479748 -7.018128,3.027126 -9.921874,0.675782 -4.61212,-3.340196 -5.411322,-11.327091 -1.847656,-15.644531 4.116504,-5.424336 12.806635,-6.523195 18.246093,-2.460936 6.29283,4.477064 8.37062,14.526733 4.816406,21.351561 C 45.335022,49.442659 36.448561,52.803626 28.746093,51.292082 20.360337,49.920887 13.6196,42.804931 11.925781,34.592865 10.891653,30.079966 11.320203,25.28869 13.023437,20.99521 c 0.980763,0.560796 1.970259,1.106792 2.984375,1.605468 0.533854,0.270218 1.609675,0.841324 1.574219,-0.210938 0.350219,-2.587934 0.301442,-5.214327 0.308594,-7.820311 C 17.841895,12.261576 17.844165,9.9332159 17.496093,7.6514608 17.423363,7.451295 17.449633,7.0258762 17.171875,6.999117 Z"/>
 <path style="opacity:0.2;fill:#ffffff;fill-rule:evenodd" d="M 32 4 A 27.999995 27.999995 0 0 0 4 32 A 27.999995 27.999995 0 0 0 4.0175781 32.492188 A 27.999995 27.999995 0 0 1 32 5 A 27.999995 27.999995 0 0 1 59.974609 32.492188 A 27.999995 27.999995 0 0 0 60 32 A 27.999995 27.999995 0 0 0 32 4 z"/>
 <circle style="fill:none" cx="128" cy="127.095" r="103.019" transform="matrix(0.27179419,0,0,0.27179419,-2.7896558,-2.5438114)"/>
 <path style="fill:#b72e0c;fill-rule:evenodd" d="m 36.321391,12.106862 c -7.2318,-0.105164 -14.697948,4.368199 -17.166908,11.289438 -2.737376,6.960522 0.400284,16.654431 7.222022,20.028527 6.031622,3.31041 14.410471,0.687322 17.429957,-5.502808 2.027908,-3.825636 1.54724,-9.665347 -1.347672,-12.923595 -1.059268,-1.268992 -2.984624,-2.500756 -4.804079,-2.897258 -4.391244,-1.184818 -9.77046,1.908006 -9.95135,6.679374 0.0152,2.387308 3.454884,3.448625 4.81119,1.476602 0.34687,-2.253432 2.733224,-3.903956 4.865186,-2.54761 3.070583,1.831032 2.918401,7.428853 0.226112,9.542479 -2.645888,2.479748 -7.016888,3.030562 -9.920634,0.679218 -4.61212,-3.340196 -5.411366,-11.326777 -1.8477,-15.644217 4.116504,-5.424337 12.805423,-6.524632 18.244881,-2.462373 6.29283,4.477065 8.37182,14.527014 4.817606,21.351842 -3.563414,7.267762 -12.452037,10.626748 -20.154505,9.115204 -8.385756,-1.371196 -15.126393,-8.485244 -16.820211,-16.69731 -1.203762,-5.253177 -0.440923,-10.888413 2.027618,-15.670169 0.913322,-2.147846 -1.671861,-4.457116 -3.700791,-3.32661 -1.6923342,0.999528 -2.003273,3.179 -2.7556028,4.848333 -3.490715,10.063135 -0.7595645,22.022914 6.9909208,29.38705 2.222035,2.1364 5.181727,4.092113 8.211258,5.278617 9.308562,3.831282 21.071735,1.811264 27.846511,-5.864037 6.0221,-6.61126 7.183004,-17.815207 2.857338,-25.628363 -1.03425,-1.974234 -2.66141,-3.972274 -3.822824,-5.086094 -3.522504,-3.416873 -8.347826,-5.410067 -13.258323,-5.42624 z"/>
 <path style="fill:#b72e0c;fill-rule:evenodd" d="M 17.171423,6.000003 C 16.107919,6.2566738 15.17173,6.867856 14.209284,7.3682735 11.330055,9.0160046 8.5146666,10.789926 5.8641833,12.787268 5.4967861,13.255728 4.351093,13.63216 4.648852,14.323383 c 0.7947955,0.838991 1.7796899,1.458844 2.7309998,2.143719 2.7782662,1.86559 5.6211902,3.65702 8.6272562,5.135208 0.533853,0.270218 1.609458,0.838906 1.574002,-0.213354 0.350219,-2.587935 0.30256,-5.210966 0.309712,-7.816951 -0.04873,-2.307852 -0.0473,-4.6398443 -0.395373,-6.9215996 -0.07273,-0.2001658 -0.04627,-0.6236432 -0.324026,-0.6504024 z"/>
 <path style="opacity:0.2" d="m 43.726684,11.08945 c -1.551868,-0.409611 -1.620996,0.662276 -1.90286,1.698551 l -8.029265,29.44545 c 0,0 -0.787012,-0.286614 -1.38304,-0.443888 -4.450258,-1.46775 -10.278432,0.479622 -12.00739,5.053796 -1.548082,3.590924 1.594356,7.711167 5.299182,8.067039 4.596988,0.70901 9.13793,-2.883602 9.755822,-7.451539 2.126504,-7.768492 4.205017,-15.55927 6.361515,-23.313835 0.398702,-0.265356 0.820016,0.635014 1.131122,0.755866 3.020762,3.056822 5.254562,7.372381 4.291662,11.758201 -0.68414,3.445144 -2.61761,6.482476 -4.633232,9.311624 5.18836,-3.725082 8.321448,-10.330154 7.141626,-16.659159 C 49.253878,25.687028 46.677134,22.854172 45.753408,19.365868 45.013432,17.002334 44.645752,14.484809 44.988106,12.015474 44.870652,11.450677 44.25498,11.223212 43.760828,11.0985 Z"/>
 <path style="fill:#ffcb4c" d="m 43.726684,10.089447 c -1.551868,-0.4096104 -1.620996,0.662276 -1.90286,1.698552 l -8.029265,29.44545 c 0,0 -0.787012,-0.286614 -1.38304,-0.443888 -4.450258,-1.46775 -10.278432,0.479622 -12.00739,5.053796 -1.548082,3.590924 1.594356,7.711167 5.299182,8.067039 4.596988,0.70901 9.13793,-2.883601 9.755822,-7.451539 2.126504,-7.768492 4.205017,-15.559269 6.361515,-23.313835 0.398702,-0.265356 0.820016,0.635014 1.131122,0.755866 3.020762,3.056822 5.254562,7.372382 4.291662,11.758201 -0.68414,3.445144 -2.61761,6.482476 -4.633232,9.311624 5.18836,-3.725082 8.321448,-10.330154 7.141626,-16.659159 C 49.253878,24.687026 46.677134,21.85417 45.753408,18.365865 45.013432,16.002331 44.645752,13.484807 44.988106,11.015472 44.870652,10.450675 44.25498,10.22321 43.760828,10.098497 Z"/>
 <path style="opacity:0.2;fill:#ffffff" d="M 43.210938 10.001953 C 42.154222 9.9468797 42.07085 10.880368 41.824219 11.787109 L 33.794922 41.234375 C 33.794922 41.234375 33.008137 40.946336 32.412109 40.789062 C 27.961851 39.321312 22.133255 41.269576 20.404297 45.84375 C 20.060763 46.64061 19.95989 47.4616 20.033203 48.263672 C 20.084865 47.787759 20.202777 47.311195 20.404297 46.84375 C 22.133255 42.269576 27.961851 40.321312 32.412109 41.789062 C 33.008137 41.946337 33.794922 42.234375 33.794922 42.234375 L 41.824219 12.787109 C 42.106083 11.750833 42.174695 10.680233 43.726562 11.089844 L 43.761719 11.097656 C 44.186104 11.204762 44.697122 11.389607 44.908203 11.796875 C 44.928899 11.53613 44.952246 11.275538 44.988281 11.015625 C 44.870827 10.450828 44.255871 10.222369 43.761719 10.097656 L 43.726562 10.089844 C 43.532579 10.038642 43.361897 10.009821 43.210938 10.001953 z M 44.875 13.439453 C 44.808285 15.444342 45.155784 17.454792 45.753906 19.365234 C 46.677632 22.853539 49.254005 25.687972 49.751953 29.3125 C 49.885288 30.027759 49.955996 30.745135 49.982422 31.462891 C 50.013247 30.414389 49.947258 29.360188 49.751953 28.3125 C 49.254005 24.687972 46.677632 21.853539 45.753906 18.365234 C 45.255278 16.772581 44.932197 15.110089 44.875 13.439453 z M 47.453125 34.080078 C 47.425653 34.603901 47.360047 35.130271 47.244141 35.658203 C 46.560001 39.103347 44.624997 42.141555 42.609375 44.970703 C 43.142952 44.587612 43.649072 44.16714 44.136719 43.726562 C 45.540951 41.540117 46.737136 39.211344 47.244141 36.658203 C 47.434182 35.792603 47.493596 34.931068 47.453125 34.080078 z"/>
</svg>
